!!!COM:	Martini, Johannes
!!!CDT:	~1440///-~1497//
!!!OTL:	Eripe me domine
!!!AGN:	Motet
!!!SCT:	Mar2045
!!!SCA:	Mar2045
!!!voices:	2
**kern	**kern
*staff2	*staff1
*Ivox	*Ivox
*I"Tenor	*I"Superius
*I'T	*I'S
*>[A,B,C,D,E,F,G,H,I,J,K,L,M,N,O,P]	*>[A,B,C,D,E,F,G,H,I,J,K,L,M,N,O,P]
*>A	*>A
*clefGv2	*clefG2
*k[]	*k[]
*M2/1	*M2/1
*met(C)	*met(C)
=1-	=1-
!!LO:TX:Z=8:t=Choir 1
!!section: A viro iniquo
!!!OMD: A viro iniquo
1A	1cc
2c\	2cc\
2c\	2cc\
=2	=2
2c\	2cc\
2c\	2cc\
1c	1cc
=3	=3
1d	2b\
.	1a
2c\	.
2B\	[2g/
=4	=4
1A	2g/]
.	2f#i/
1Gl	1gl
=5||	=5||
*>B	*>B
!!LO:TX:Z=8:t=Qui cogitaverunt iniquitates
!!LO:TX:Z=8:t=Choir 2
1c	1a
2c\	2a/
2c\	2a/
=6	=6
2c\	2a/
2c\	2a/
1A	1a
=7	=7
1c	1a
2c\	2a/
2c\	2a/
=8	=8
1c	1a
2B\	2g/
2c\	2a/
=9	=9
1d	1b
1A	1a
=10	=10
1r	1r
2c\	2a/
2c\	2a/
=11	=11
1c	1a
2B\	2g/
2c\	2a/
=12	=12
2d\	2b\
2c\	2cc\
1d	2b\
.	[2a/
=13	=13
2c\	2a/]
2B\	1g
1A	.
.	2f#i/
=14	=14
0Gl	0gl
=15||	=15||
*>C	*>C
!!section: Acuerunt linguas suas
!!!OMD: Acuerunt linguas suas
!!LO:TX:Z=8:t=Choir 1
1c	1a
2c\	2a/
2c\	2a/
=16	=16
1c	1a
2B\	2g/
2A/	2f/
=17	=17
1B	1g
1A	1a
=18	=18
2c\	2a/
1d	1b
2c\	[2a/
=19	=19
1B	2a/]
.	2g#i/
1A	1a
=20	=20
1r	1r
1c	1a
=21	=21
2c\	2a/
2c\	2a/
2c\	2a/
2c\	2a/
=22	=22
1c	1a
2c\	2a/
2c\	2a/
=23	=23
1d	2b\
.	1a
2c\	.
2B\	[2g/
=24	=24
1A	2g/]
.	2f#i/
1Gl	1gl
=25||	=25||
*>D	*>D
!!LO:TX:Z=8:t=Choir 2
!!section: Custodi me
!!!OMD: Custodi me
2c\	2a/
2c\	2a/
2c\	2a/
2c\	2a/
=26	=26
2c\	2a/
2c\	2a/
1c	1a
=27	=27
2B\	2g/
2c\	2a/
2d\	2b\
[2e\	[2cc\
=28	=28
2e\]	2cc\]
4d\	4b\
4c\	4a/
2B\	2g/
2A/	[2a/
=29	=29
1B	2a/]
.	2g#i/
1A	1a
=30	=30
1r	1r
1c	1a
=31	=31
2c\	2a/
2c\	2a/
2c\	2a/
2c\	2a/
=32	=32
1c	1a
2B\	2g/
2c\	2a/
=33	=33
1d	2b\
.	1a
2c\	.
2B\	[2g/
=34	=34
1A	2g/]
.	2f#i/
1Gl	1gl
=35||	=35||
*>E	*>E
!!section: Qui cogitaverunt supplantare
!!!OMD: Qui cogitaverunt supplantare
!!LO:TX:Z=8:t=Choir 1
1c	1a
2c\	2a/
2c\	2a/
=36	=36
2c\	2a/
2c\	2a/
1c	1a
=37	=37
2B\	2g/
2A/	2f/
1B	1g
=38	=38
2A/	2a/
1d	1b
2c\	[2a/
=39	=39
1B	2a/]
.	2g#i/
1A	1a
=40	=40
1r	1r
2c\	2a/
2c\	2a/
=41	=41
1c	1a
2c\	2a/
2c\	2a/
=42	=42
1c	1a
1c	1a
=43	=43
1d	2b\
.	1a
2c\	.
2B\	[2g/
=44	=44
1A	2g/]
.	2f#i/
1Gl	1gl
=45||	=45||
*>F	*>F
!!LO:TX:Z=8:t=Choir 2
!!section: Et funes extenderunt
!!!OMD: Et funes extenderunt
1A	1a
2c\	2a/
2c\	2a/
=46	=46
2B\	2g/
2A/	2f/
2G/	2e/
2A/	2f/
=47	=47
2B\	2g/
2A/	1a
1B	.
.	2g#i/
=48	=48
1A	1a
1r	1r
=49	=49
2c\	2a/
2c\	2a/
1c	1a
=50	=50
1c	1a
2A/	2a/
2B\	2g/
=51	=51
1c	2a/
.	2cc\
2d\	2b\
2c\	[2a/
=52	=52
2A/	2a/]
2B\	1g
1A	.
.	2f#i/
=53	=53
0Gl	0gl
=54||	=54||
*>G	*>G
!!section: Dixi Domino
!!!OMD: Dixi Domino
!!LO:TX:Z=8:t=Choir 1
2c\	2a/
2c\	2a/
2c\	2a/
2c\	2a/
=55	=55
1c	1a
2c\	2a/
2d\	2b\
=56	=56
2e\	2cc\
2d\	1b
1c	.
.	2a/
=57	=57
1B	1b
1r	1r
=58	=58
1c	1a
2c\	2a/
2c\	2a/
=59	=59
1c	1a
1c	1a
=60	=60
2B\	2g/
2c\	2a/
2A/	2a/
[2d\	[2b\
=61	=61
2d\]	2b\]
1c	1a
2B\	[2g/
=62	=62
1A	2g/]
.	2f#i/
1Gl	1gl
=63||	=63||
*>H	*>H
!!LO:TX:Z=8:t=Choir 2
!!section: Domine, Domine
!!!OMD: Domine, Domine
1A	1a
2c\	2a/
2c\	2a/
=64	=64
2c\	2a/
2c\	2a/
1A	1a
=65	=65
2c\	2a/
2A/	2a/
2B\	2g/
2c\	2a/
=66	=66
2d\	2b\
2A/	1a
1B	.
.	2g#i/
=67	=67
1A	1a
1r	1r
=68	=68
2c\	2a/
2c\	2a/
1c	1a
=69	=69
1c	1a
2c\	2a/
2c\	2a/
=70	=70
2B\	2g/
2A/	2f/
1B	1g
=71	=71
1c	1a
1d	2b\
.	[2a/
=72	=72
2c\	2a/]
2B\	1g
1A	.
.	2f#i/
=73	=73
0Gl	0gl
=74||	=74||
*>I	*>I
!!LO:TX:Z=8:t=Choir 1
!!section: Non tradas me
!!!OMD: Non tradas me
2c\	2a/
2c\	2a/
2c\	2a/
2c\	2a/
=75	=75
2c\	2a/
2c\	2a/
1c	1a
=76	=76
1c	1a
2c\	2a/
2c\	2a/
=77	=77
2c\	2a/
2c\	2a/
1c	1a
=78	=78
2c\	2a/
2A/	2a/
2B\	2g/
2c\	2a/
=79	=79
1d	1b
1c	1a
=80	=80
1r	1r
1c	1a
=81	=81
2c\	2a/
2c\	2a/
2c\	2a/
2c\	2a/
=82	=82
2c\	2a/
2c\	2a/
1c	1a
=83	=83
2r	2r
2A/	2a/
2c\	2a/
2c\	2a/
=84	=84
2c\	2a/
2c\	2a/
1c	1a
=85	=85
2c\	2a/
2c\	2a/
1d	2b\
.	[2a/
=86	=86
2c\	2a/]
2B\	1g
1A	.
.	2f#i/
=87	=87
0Gl	0gl
=88||	=88||
*>J	*>J
!!section: Caput circuitus
!!!OMD: Caput circuitus
!!LO:TX:Z=8:t=Choir 2
1A	1a
2B\	2g/
2c\	2a/
=89	=89
2d\	2b\
1e	1cc
2c\	4b\
.	4a/
=90	=90
2B\	2g/
2A/	1a
1B	.
.	2g#i/
=91	=91
1A	1a
1r	1r
=92	=92
2c\	2a/
2c\	2a/
2B\	2g/
2A/	2f/
=93	=93
1B	1g
1c	1a
=94	=94
2c\	2a/
2c\	2a/
1A	1a
=95	=95
1c	2a/
.	2cc\
1d	2b\
.	[2a/
=96	=96
2c\	2a/]
2B\	1g
1A	.
.	2f#i/
=97	=97
0Gl	0gl
=98||	=98||
*>K	*>K
!!section: Cadent super eos
!!!OMD: Cadent super eos
!!LO:TX:Z=8:t=Choir 1
1c	1a
1c	1a
=99	=99
1c	1a
2c\	2a/
2A/	2a/
=100	=100
2B\	2g/
2c\	2a/
1d	1b
=101	=101
1A	1a
1r	1r
=102	=102
2c\	2a/
2c\	2a/
2c\	2a/
2c\	2a/
=103	=103
2c\	2a/
2c\	2a/
1c	1a
=104	=104
1B	1g
1A	1a
=105	=105
1r	1r
2c\	2a/
2c\	2a/
=106	=106
2c\	2a/
2c\	2a/
1c	1a
=107	=107
1d	2b\
.	1a
2c\	.
2B\	[2g/
=108	=108
1A	2g/]
.	2f#i/
1Gl	1gl
=109||	=109||
*>L	*>L
!!LO:TX:Z=8:t=Choir 2
!!section: Vir linguosus
!!!OMD: Vir linguosus
2c\	2a/
2c\	2a/
1c	1a
=110	=110
1c	1a
2B\	2g/
2A/	2f/
=111	=111
2G/	2e/
2A/	2f/
2B\	2g/
2A/	[2a/
=112	=112
1B	2a/]
.	2g#i/
1A	1a
=113	=113
1r	1r
1c	1a
=114	=114
2c\	2a/
2c\	2a/
1c	1a
=115	=115
1A	1a
2B\	2g/
2c\	2a/
=116	=116
2d\	2b\
2c\	2a/
1c	1cc
=117	=117
1d	2b\
.	1a
2c\	.
2B\	[2g/
=118	=118
1A	2g/]
.	2f#i/
1Gl	1gl
=119||	=119||
*>M	*>M
!!LO:TX:Z=8:t=Choir 1
!!section: Cognovi quia
!!!OMD: Cognovi quia
1c	1a
1B	1g
=120	=120
1A	1a
2c\	2a/
2c\	2a/
=121	=121
2c\	2a/
2c\	2a/
1c	1a
=122	=122
2c\	2a/
2c\	2a/
1c	1a
=123	=123
2c\	2a/
2c\	2a/
2c\	2a/
[2d\	[2b\
=124	=124
2d\]	2b\]
2c\	1a
1B	.
.	2g#i/
=125	=125
1A	1a
1r	1r
=126	=126
1c	1a
2c\	2a/
2c\	2a/
=127	=127
1d	2b\
.	1a
2c\	.
2B\	[2g/
=128	=128
1A	2g/]
.	2f#i/
1Gl	1gl
=129||	=129||
*>N	*>N
!!LO:TX:Z=8:t=Choir 2
!!section: Verumtamen justi
!!!OMD: Verumtamen justi
1A	1a
2c\	2a/
2c\	2a/
=130	=130
1c	1a
2c\	2a/
2c\	2a/
=131	=131
2B\	2g/
2A/	2f/
2B\	2g/
2B\	2g/
=132	=132
1A	1a
2c\	2a/
[2d\	[2b\
=133	=133
2d\]	2b\]
2c\	1a
1B	.
.	2g#i/
=134	=134
1A	1a
1r	1r
=135	=135
1c	1a
2c\	2a/
2c\	2a/
=136	=136
1c	1a
1c	1a
=137	=137
2d\	2b\
2c\	2a/
2B\	2g/
[2c\	[2a/
=138	=138
2c\]	2a/]
2B\	1g
1A	.
.	2f#i/
=139	=139
0Gl	0gl
=140||	=140||
*>O	*>O
!!section: Gloria Patri
!!!OMD: Gloria Patri
!!LO:TX:Z=8:t=Choir 1
1c	1a
2c\	2a/
2c\	2a/
=141	=141
1c	1a
1c	1a
=142	=142
2B\	2g/
2c\	2a/
2d\	2b\
[2e\	[2cc\
=143	=143
2e\]	2cc\]
4d\	4b\
4c\	4a/
2B\	2g/
2A/	[2a/
=144	=144
1B	2a/]
.	2g#i/
1A	1a
=145	=145
1r	1r
1c	1a
=146	=146
2c\	2a/
2c\	2a/
1c	1a
=147	=147
1d	2b\
.	1a
2c\	.
2B\	[2g/
=148	=148
1A	2g/]
.	2f#i/
1Gl	1gl
=149||	=149||
*>P	*>P
!!section: Sicut erat
!!!OMD: Sicut erat
!!LO:TX:Z=8:t=Choir 2
2c\	2a/
2c\	2a/
2c\	2a/
2c\	2a/
=150	=150
1c	1a
2B\	2g/
2c\	2a/
=151	=151
2d\	2b\
1e	1cc
4d\	4b\
4c\	4a/
=152	=152
2B\	2g/
2A/	1a
1B	.
.	2g#i/
=153	=153
1A	1a
1r	1r
=154	=154
1c	1a
2c\	2a/
2c\	2a/
=155	=155
1c	1a
2c\	2a/
[2d\	[2b\
=156	=156
2d\]	2b\]
4c\	4a/
4B\	4g/
2A/	2f#i/
2G/	[2g/
=157	=157
1A	2g/]
.	2f#i/
1Gl	1gl
==	==
*-	*-
!!!RDF**kern: l=long note in original notation
!!!RDF**kern: i=editorial accidental
!!!ENC:	Chris Gage 02-26-2014
!!!END:	2014/10/07/
!!!EED:	Jesse Rodin
!!!EEV:	2014/10/17/
!!!ONB:	Translated from MusicXML and edited on 2014/10/17/ by Craig Sapp
!!muse2ps: C^@{COM}^i2I150v85,150Q16
